src/pos-icons/stomach.svg

<svg height="24" viewBox="0 0 24 24" width="24" xmlns="http://www.w3.org/2000/svg"><path d="m4 18c.67 1.85 2.07 4 8 4 2.36 0 5.07-.07 7-2 1-1 3-3 3-9s-2-7-4-7c-1.38 0-3 0-4 2v.03a1.82 1.82 0 0 1 -1.87.92c-1.13-.14-1.13-.58-1.13-.95v-4h-2v4a2.92 2.92 0 0 0 3 3c1 0 1 1.78 1 3 0 1.89-.5 3.26-2 4-2.31 1.15-4.61 1-5.39-.53a1.5 1.5 0 0 0 -2.47-.6 3.67 3.67 0 0 0 -1.14 3.13v4h2z"/></svg>

<?xml version="1.0" encoding="UTF-8"?><!DOCTYPE svg PUBLIC "-//W3C//DTD SVG 1.1//EN" "http://www.w3.org/Graphics/SVG/1.1/DTD/svg11.dtd"><svg xmlns="http://www.w3.org/2000/svg" xmlns:xlink="http://www.w3.org/1999/xlink" version="1.1" id="mdi-stomach" width="24" height="24" viewBox="0 0 24 24"><path d="M4 18C4.67 19.85 6.07 22 12 22C14.36 22 17.07 21.93 19 20C20 19 22 17 22 11S20 4 18 4C16.62 4 15 4 14 6V6.03A1.82 1.82 0 0 1 12.13 6.95C11 6.81 11 6.37 11 6V2H9V6A2.92 2.92 0 0 0 12 9C13 9 13 10.78 13 12C13 13.89 12.5 15.26 11 16C8.69 17.15 6.39 17 5.61 15.47A1.5 1.5 0 0 0 3.14 14.87A3.67 3.67 0 0 0 2 18V22H4Z" /></svg>
